X: 51
T: Where the Wind Is Blowing
C: Teton Sioux band 1911-1914
N: Derived from sioux051.krn
O: South Dakota, U.S.A.
N: Teton Sioux Music by Frances Densmore, 1918
Z: transcribed to **kern format by Craig Sapp
L: 1/16
M: 3/4
Q: 1/4=58
K: C clef=bass
%%linebreak <none>
E4(3E2 E2 E2 (3E2 E2 E2 [I:setbarnb 2]| 
^D4-D2> E2 E> E =D2 | 
C C C CA,8 ||  
[M:2/4]A,4A,4 ]|:  
D D/ D/ D D E E D C | 
[M:3/4]A,4-A,2> C2 C> C A,2 | 
G, G, G, G,E,8 ||  
[M:3/8]E, E, E, E, E, E, ||  
[M:3/4]^D,4-D,2> E,2 E,> E, =D,2 | 
C, C, C, C,A,,8 ||  
[M:2/4]A,,4A,,4 :|]  



